X: 131338
T: Mistress of the House
T: M\'aistre\'as an T\'i
S: "Ceol Rince na hEireann" 1/71
Z: B.Black
L: 1/8
M: 4/4
R: reel
K: G
D|GABG c2 BA|GBdg efdB|GABG A3 z|eAcA EAA>D|
GABG c2 BA|GBdg efdB|G2 GB A2 Ac|BGdG BG G2||
gfeg fe d2|efge dcBA|GABG A3 z|eAcA eAA>A|
gfeg fe d2|efge dcBA|G3c A3c|BGdG BG G2||
